libs/shared/images/icons-sharp-light/file-binary.svg

<svg xmlns="http://www.w3.org/2000/svg" viewBox="0 0 384 512"><defs><style>.fa-secondary{opacity:.4}</style></defs><path class="fa-secondary" d="M0 0L224 0c0 53.3 0 106.7 0 160l160 0 0 352L0 512 0 0zM64 256l0 16 0 128 0 16 16 0 96 0 16 0 0-16 0-128 0-16-16 0-96 0-16 0zm32 32l64 0 0 96-64 0 0-96zm128-32l0 32 16 0 16 0 0 96-16 0-16 0 0 32 16 0 32 0 32 0 16 0 0-32-16 0-16 0 0-112 0-16-16 0-32 0-16 0z"/><path class="fa-primary" d="M384 160L224 0l0 160 160 0zM80 256l-16 0 0 16 0 128 0 16 16 0 96 0 16 0 0-16 0-128 0-16-16 0-96 0zM96 384l0-96 64 0 0 96-64 0zM240 256l-16 0 0 32 16 0 16 0 0 96-16 0-16 0 0 32 16 0 32 0 32 0 16 0 0-32-16 0-16 0 0-112 0-16-16 0-32 0z"/></svg>

<svg xmlns="http://www.w3.org/2000/svg" viewBox="0 0 384 512"><path d="M352 480H32V32H192V176v16h16H352V480zM224 37.3L346.7 160H224V37.3zM232 0H32 0V32 480v32H32 352h32V480 152L232 0zM80 256H64v16V400v16H80h96 16V400 272 256H176 80zM96 384V288h64v96H96zM240 256H224v32h16 16v96H240 224v32h16 32 32 16V384H304 288V272 256H272 240z"/></svg>
